app/images/icons/mail.svg

<svg width="24" height="24" viewBox="0 0 24 24" fill="none" xmlns="http://www.w3.org/2000/svg">
<path d="M2.57153 8.67764L11.7035 13.4271C11.7951 13.4747 11.8969 13.4996 12.0001 13.4996C12.1033 13.4996 12.2051 13.4747 12.2967 13.4271L21.4287 8.6785V16.9285C21.4287 17.64 21.1565 18.3246 20.6678 18.8418C20.1791 19.359 19.5111 19.6696 18.8007 19.7099L18.643 19.7142H5.35725C4.6457 19.7143 3.96111 19.442 3.44391 18.9534C2.9267 18.4647 2.6161 17.7966 2.57582 17.0862L2.57153 16.9285V8.67764ZM5.35725 4.28564H18.643C19.3545 4.2856 20.0391 4.55783 20.5563 5.04651C21.0735 5.53518 21.3841 6.20324 21.4244 6.91364L21.4287 7.07136V7.22907L12.0001 12.1319L2.57153 7.22907V7.07136C2.57149 6.35981 2.84372 5.67522 3.33239 5.15802C3.82107 4.64082 4.48913 4.33021 5.19953 4.28993L5.35725 4.28564H18.643H5.35725Z" fill="white"/>
</svg>

<svg width="24" height="24" fill="none" xmlns="http://www.w3.org/2000/svg"><path d="M2.572 8.678l9.131 4.75a.643.643 0 00.594 0l9.132-4.75v8.25A2.786 2.786 0 0118.8 19.71l-.158.004H5.357a2.786 2.786 0 01-2.781-2.628l-.004-.157V8.678zm2.785-4.392h13.286a2.786 2.786 0 012.781 2.628l.005.157v.158L12 12.132 2.572 7.229v-.158A2.786 2.786 0 015.2 4.29l.157-.004h13.286H5.357z" fill="#fff"/></svg>
